X:119
T:McGivney's Favourite
T:McGivney's Fancy
T:Jackie Tar
T:Jacky Tar
R:hornpipe
H:See also #38
Z:id:hn-hornpipe-119
M:C|
L:1/8
K:Em
(3Bcd | e2ef ~e3f | edBA B2AB | d2de d2gd | edBG AdBA |
GFGA Bgfg | edBd efg2 | EFGA BcBA | G2E2 E2 :|
|: GA | BGEG BGEG | BGAF E2FG | AFDF AFDF | AFGE D2 (3DEF |
GFGA Bgfg | edBd efg2 | EFGA BcBA | G2E2 E2 :|

